public/cloud-icons/azure/application/services-hub-connector.svg

<?xml version="1.0" encoding="UTF-8" standalone="no"?>
<!-- Generated by Microsoft Visio, SVG Export Services Hub Connector.svg Page-1 -->

<svg
   xmlns:dc="http://purl.org/dc/elements/1.1/"
   xmlns:cc="http://creativecommons.org/ns#"
   xmlns:rdf="http://www.w3.org/1999/02/22-rdf-syntax-ns#"
   xmlns:svg="http://www.w3.org/2000/svg"
   xmlns="http://www.w3.org/2000/svg"
   xmlns:sodipodi="http://sodipodi.sourceforge.net/DTD/sodipodi-0.dtd"
   xmlns:inkscape="http://www.inkscape.org/namespaces/inkscape"
   width="56.694408"
   height="53.85096"
   viewBox="0 0 56.694408 53.850958"
   xml:space="preserve"
   class="st4"
   version="1.1"
   id="svg34"
   sodipodi:docname="Services Hub Connector.svg"
   style="font-size:12px;overflow:visible;color-interpolation-filters:sRGB;fill:none;fill-rule:evenodd;stroke-linecap:square;stroke-miterlimit:3"
   inkscape:version="0.92.5 (2060ec1f9f, 2020-04-08)"><metadata
   id="metadata40"><rdf:RDF><cc:Work
       rdf:about=""><dc:format>image/svg+xml</dc:format><dc:type
         rdf:resource="http://purl.org/dc/dcmitype/StillImage" /></cc:Work></rdf:RDF></metadata><defs
   id="defs38" /><sodipodi:namedview
   pagecolor="#ffffff"
   bordercolor="#666666"
   borderopacity="1"
   objecttolerance="10"
   gridtolerance="10"
   guidetolerance="10"
   inkscape:pageopacity="0"
   inkscape:pageshadow="2"
   inkscape:window-width="640"
   inkscape:window-height="480"
   id="namedview36"
   showgrid="false"
   inkscape:zoom="2.2873979"
   inkscape:cx="28.34645"
   inkscape:cy="17.56736"
   inkscape:window-x="0"
   inkscape:window-y="0"
   inkscape:window-maximized="0"
   inkscape:current-layer="svg34" />
	<style
   type="text/css"
   id="style2">
	<![CDATA[
		.st1 {fill:#919191;stroke:none;stroke-linecap:butt;stroke-width:15.3}
		.st2 {fill:#ffffff;stroke:none;stroke-linecap:butt;stroke-width:15.3}
		.st3 {fill:#2f2f2f;stroke:none;stroke-linecap:butt;stroke-width:15.3}
		.st4 {fill:none;fill-rule:evenodd;font-size:12px;overflow:visible;stroke-linecap:square;stroke-miterlimit:3}
	]]>
	</style>

	<g
   id="g32"
   transform="translate(-15.3,-15.3034)">
		<title
   id="title4">Page-1</title>
		<g
   id="group14828-1"
   transform="translate(15.3,-34.0157)">
			<title
   id="title6">Services Hub Connector.14828</title>
			<g
   id="group14829-2">
				<title
   id="title8">Sheet.14829</title>
				<g
   id="shape14830-3"
   transform="translate(12.2244,-5.3409)">
					<title
   id="title10">Sheet.14830</title>
					<path
   d="m 22.24,77.72 h 4.28 a 4.38236,4.42381 0 0 1 4.77,-3.46 4.39654,4.43811 0 0 1 3.89,4.89 4.38378,4.42524 0 0 1 -4.85,3.92 4.39654,4.43811 0 0 1 -3.8,-3.45 L 22.24,79.61 V 90.2 l 4.41,4.47 a 7.67764,7.75025 0 0 1 4.66,-1.61 c 2.34,0 4.52,1.05 5.99,2.89 0.03,0.05 0.06,0.09 0.09,0.14 a 23.9528,24.1793 -180 0 0 7.08,-17.18 c 0,-13.37 -10.78,-24.25 -24.04,-24.25 -8.02,0 -15.12,3.98 -19.49,10.08 h 21.3 z M 25.31,96 21.04,91.68 H 0 c 4.25,6.89 11.81,11.49 20.43,11.49 1.2,0 2.38,-0.09 3.53,-0.26 A 7.68898,7.76169 0 0 1 25.31,96 Z"
   class="st1"
   id="path12"
   inkscape:connector-curvature="0"
   style="fill:#919191;stroke:none;stroke-width:15.30000019;stroke-linecap:butt" />
				</g>
				<g
   id="shape14831-5"
   transform="translate(0,-5.26839)">
					<title
   id="title15">Sheet.14831</title>
					<path
   d="m 25.64,76.73 h -6.13 v -5.96 h -3.34 v 14.94 h 3.34 v -6.08 h 6.13 v 6.09 h 3.35 V 70.77 H 25.64 Z M 9.66,85.92 c 0.34,-0.04 0.68,-0.09 1.02,-0.17 0.71,-0.16 2.46,-0.49 3.41,-2.39 0.29,-0.58 0.47,-1.26 0.47,-2.1 0,-0.61 -0.09,-1.13 -0.26,-1.59 A 3.66803,3.70272 -180 0 0 13.52,78.46 5.62394,5.67712 -180 0 0 12.31,77.5 13.0961,13.2199 -180 0 0 10.71,76.7 18.1134,18.2847 0 0 1 9.55,76.18 5.87622,5.93179 0 0 1 8.82,75.75 C 8.77,75.72 8.71,75.69 8.67,75.65 8.43,75.48 8.24,75.29 8.11,75.09 A 1.18346,1.19466 0 0 1 7.91,74.42 1.14803,1.15889 0 0 1 8.09,73.8 1.55906,1.5738 0 0 1 8.58,73.32 c 0.21,-0.12 0.45,-0.22 0.74,-0.29 0.02,0 0.03,-0.01 0.05,-0.01 0.31,-0.08 0.65,-0.11 1.04,-0.11 a 6.68693,6.75017 0 0 1 1.79,0.26 c 0.31,0.08 0.61,0.2 0.91,0.33 0.29,0.13 0.56,0.28 0.81,0.46 v -3.12 c -0.69,-0.32 -2.4,-0.57 -3.7,-0.57 h -0.04 c -3.54,0.01 -5,1.87 -5.31,2.43 -0.31,0.56 -0.46,1.23 -0.46,2 0,1 0.28,1.84 0.85,2.55 0.57,0.7 1.43,1.29 2.59,1.78 0.27,0.11 0.54,0.23 0.79,0.33 0.16,0.08 0.32,0.15 0.47,0.22 0.4,0.18 0.73,0.37 1.03,0.56 0.28,0.19 0.51,0.41 0.67,0.64 a 1.27701,1.28908 0 0 1 0.09,1.38 1.36772,1.38065 0 0 1 -0.47,0.47 c -0.21,0.14 -0.45,0.25 -0.78,0.32 A 7.7811,7.85469 0 0 1 9,83.07 C 5.18,83.63 1.26,81.64 0,81.08 v 3.08 c 1.22,0.31 5.48,2.26 9.66,1.76 z M 6.73,98.1 a 2.51291,2.53668 -180 1 0 0.28,0.02 C 6.91,98.11 6.83,98.1 6.73,98.1 Z"
   class="st2"
   id="path17"
   inkscape:connector-curvature="0"
   style="fill:#ffffff;stroke:none;stroke-width:15.30000019;stroke-linecap:butt" />
				</g>
				<g
   id="shape14832-7">
					<title
   id="title20">Sheet.14832</title>
					<path
   d="m 49.52,90.61 a 7.63228,7.70446 -180 0 0 -5.98,-2.89 c -1.68,0 -3.33,0.57 -4.67,1.6 L 34.46,84.86 V 74.27 l 4.29,0.01 a 4.39937,4.44098 -180 0 0 4.29,3.48 4.38378,4.42524 -180 0 0 4.36,-3.95 4.39654,4.43811 -180 0 0 -4.37,-4.92 4.38236,4.42381 -180 0 0 -4.29,3.49 H 34.46 V 59.4 H 0 v 16.41 c 1.26,0.56 5.18,2.55 8.99,1.99 0.21,-0.03 0.43,-0.06 0.65,-0.11 0.32,-0.08 0.57,-0.19 0.78,-0.32 A 1.36772,1.38065 -180 0 0 10.89,76.89 1.27134,1.28336 -180 0 0 10.8,75.51 2.66457,2.68977 -180 0 0 10.12,74.87 6.96331,7.02916 -180 0 0 9.1,74.31 C 8.95,74.24 8.79,74.17 8.63,74.1 A 27.8277,28.0909 -180 0 0 7.84,73.76 C 6.68,73.28 5.82,72.68 5.25,71.98 4.68,71.28 4.4,70.43 4.4,69.44 4.4,68.66 4.55,67.99 4.86,67.43 5.17,66.88 6.63,65.02 10.17,65 h 0.04 c 1.3,0 3,0.25 3.7,0.57 v 3.12 A 5.34047,5.39098 -180 0 0 13.09,68.23 6.42331,6.48405 -180 0 0 12.19,67.9 7.73717,7.81034 -180 0 0 11.27,67.71 6.01795,6.07486 -180 0 0 10.4,67.64 c -0.38,0 -0.73,0.04 -1.04,0.11 -0.02,0.01 -0.03,0.01 -0.05,0.02 -0.28,0.07 -0.53,0.17 -0.73,0.29 a 1.51937,1.53374 -180 0 0 -0.5,0.47 1.09417,1.10452 -180 0 0 -0.17,0.63 1.17638,1.1875 -180 0 0 0.19,0.67 c 0.13,0.2 0.32,0.38 0.56,0.56 0.04,0.03 0.1,0.07 0.15,0.1 0.21,0.14 0.45,0.29 0.73,0.42 0.34,0.17 0.73,0.35 1.17,0.53 0.59,0.25 1.12,0.52 1.59,0.8 0.47,0.28 0.88,0.6 1.21,0.95 0.34,0.36 0.6,0.76 0.78,1.22 0.18,0.45 0.26,0.98 0.26,1.59 0,0.83 -0.18,1.52 -0.47,2.09 -0.94,1.9 -2.7,2.24 -3.41,2.4 A 10.6257,10.7262 0 0 1 9.65,80.66 C 5.48,81.16 1.22,79.2 0,78.89 v 7.45 h 5.8 l -0.01,4.7 A 4.38094,4.42238 -180 0 0 2.37,94.89 4.3937,4.43525 -180 0 0 6.74,99.8 4.38378,4.42524 -180 0 0 11.1,95.85 4.39512,4.43668 -180 0 0 7.67,91.04 l 0.01,-4.71 h 25.59 l 4.27,4.32 a 7.69465,7.76741 -180 0 0 -1.36,6.91 7.6252,7.69731 -180 0 0 7.37,5.61 c 1.73,0 3.43,-0.6 4.79,-1.7 A 7.66205,7.73451 -180 0 0 49.62,90.74 C 49.58,90.7 49.56,90.65 49.52,90.61 Z M 40.54,73.05 a 2.51433,2.53811 0 1 1 4.99,0.56 2.51433,2.53811 0 0 1 -4.99,-0.56 z M 9.23,95.65 A 2.5139,2.53767 0 1 1 4.24,95.1 2.5139,2.53767 0 0 1 9.23,95.65 Z m 19.76,-15.2 h -3.35 v -6.09 h -6.13 v 6.08 H 16.17 V 65.5 h 3.34 v 5.96 h 6.13 V 65.5 h 3.35 z M 47.16,100 a 5.78268,5.83736 0 0 1 -8.13,-0.9 5.77559,5.83021 0 0 1 -0.15,-7.09 c 0.29,-0.41 0.64,-0.79 1.05,-1.12 0.09,-0.07 0.19,-0.14 0.29,-0.21 a 5.7685,5.82306 0 0 1 3.32,-1.07 5.78126,5.83593 0 0 1 3.62,10.39 z"
   class="st3"
   id="path22"
   inkscape:connector-curvature="0"
   style="fill:#2f2f2f;stroke:none;stroke-width:15.30000019;stroke-linecap:butt" />
				</g>
				<g
   id="shape14833-9"
   transform="translate(38.3896,-1.89142)">
					<title
   id="title25">Sheet.14833</title>
					<path
   d="M 9.67,93.69 A 5.77276,5.82735 -180 0 0 1.83,92.57 c -0.1,0.07 -0.2,0.14 -0.29,0.22 -0.41,0.33 -0.76,0.7 -1.05,1.11 a 5.77559,5.83021 -180 0 0 4.67,9.27 5.78126,5.83593 -180 0 0 4.51,-9.48 z"
   class="st2"
   id="path27"
   inkscape:connector-curvature="0"
   style="fill:#ffffff;stroke:none;stroke-width:15.30000019;stroke-linecap:butt" />
				</g>
			</g>
		</g>
	</g>
</svg>

<svg xmlns="http://www.w3.org/2000/svg" xml:space="preserve" width="56.694" height="53.851" style="font-size:12px;overflow:visible;color-interpolation-filters:sRGB;fill-rule:evenodd;stroke-linecap:square;stroke-miterlimit:3" viewBox="0 0 56.694 53.851"><g transform="translate(-15.3 -15.303)"><title>Page-1</title><g transform="translate(15.3 -34.016)"><title>Services Hub Connector.14828</title><title>Sheet.14829</title><g transform="translate(12.224 -5.34)"><title>Sheet.14830</title><path d="M22.24 77.72h4.28a4.382 4.424 0 0 1 4.77-3.46 4.397 4.438 0 0 1 3.89 4.89 4.384 4.425 0 0 1-4.85 3.92 4.397 4.438 0 0 1-3.8-3.45l-4.29-.01V90.2l4.41 4.47a7.678 7.75 0 0 1 4.66-1.61c2.34 0 4.52 1.05 5.99 2.89.03.05.06.09.09.14a23.953 24.18-180 0 0 7.08-17.18c0-13.37-10.78-24.25-24.04-24.25-8.02 0-15.12 3.98-19.49 10.08h21.3zM25.31 96l-4.27-4.32H0c4.25 6.89 11.81 11.49 20.43 11.49 1.2 0 2.38-.09 3.53-.26A7.689 7.762 0 0 1 25.31 96" style="fill:#919191;stroke:none;stroke-width:15.30000019;stroke-linecap:butt"/></g><g transform="translate(0 -5.268)"><title>Sheet.14831</title><path d="M25.64 76.73h-6.13v-5.96h-3.34v14.94h3.34v-6.08h6.13v6.09h3.35V70.77h-3.35ZM9.66 85.92c.34-.04.68-.09 1.02-.17.71-.16 2.46-.49 3.41-2.39.29-.58.47-1.26.47-2.1 0-.61-.09-1.13-.26-1.59a3.668 3.703-180 0 0-.78-1.21 5.624 5.677-180 0 0-1.21-.96 13.096 13.22-180 0 0-1.6-.8 18.113 18.285 0 0 1-1.16-.52 5.876 5.932 0 0 1-.73-.43c-.05-.03-.11-.06-.15-.1-.24-.17-.43-.36-.56-.56a1.183 1.195 0 0 1-.2-.67 1.148 1.159 0 0 1 .18-.62 1.56 1.574 0 0 1 .49-.48c.21-.12.45-.22.74-.29.02 0 .03-.01.05-.01.31-.08.65-.11 1.04-.11a6.687 6.75 0 0 1 1.79.26c.31.08.61.2.91.33.29.13.56.28.81.46v-3.12c-.69-.32-2.4-.57-3.7-.57h-.04c-3.54.01-5 1.87-5.31 2.43s-.46 1.23-.46 2c0 1 .28 1.84.85 2.55.57.7 1.43 1.29 2.59 1.78.27.11.54.23.79.33.16.08.32.15.47.22.4.18.73.37 1.03.56.28.19.51.41.67.64a1.277 1.29 0 0 1 .09 1.38 1.368 1.38 0 0 1-.47.47c-.21.14-.45.25-.78.32a7.781 7.855 0 0 1-.65.12c-3.82.56-7.74-1.43-9-1.99v3.08c1.22.31 5.48 2.26 9.66 1.76M6.73 98.1a2.513 2.537-180 1 0 .28.02c-.1-.01-.18-.02-.28-.02" style="fill:#fff;stroke:none;stroke-width:15.30000019;stroke-linecap:butt"/></g><title>Sheet.14832</title><path d="M49.52 90.61a7.632 7.704-180 0 0-5.98-2.89c-1.68 0-3.33.57-4.67 1.6l-4.41-4.46V74.27l4.29.01a4.4 4.441-180 0 0 4.29 3.48 4.384 4.425-180 0 0 4.36-3.95 4.397 4.438-180 0 0-4.37-4.92 4.382 4.424-180 0 0-4.29 3.49h-4.28V59.4H0v16.41c1.26.56 5.18 2.55 8.99 1.99.21-.03.43-.06.65-.11.32-.08.57-.19.78-.32a1.368 1.38-180 0 0 .47-.48 1.271 1.283-180 0 0-.09-1.38 2.665 2.69-180 0 0-.68-.64 6.963 7.03-180 0 0-1.02-.56c-.15-.07-.31-.14-.47-.21a27.828 28.09-180 0 0-.79-.34c-1.16-.48-2.02-1.08-2.59-1.78s-.85-1.55-.85-2.54c0-.78.15-1.45.46-2.01.31-.55 1.77-2.41 5.31-2.43h.04c1.3 0 3 .25 3.7.57v3.12a5.34 5.391-180 0 0-.82-.46 6.423 6.484-180 0 0-.9-.33 7.737 7.81-180 0 0-.92-.19 6.018 6.075-180 0 0-.87-.07c-.38 0-.73.04-1.04.11-.02.01-.03.01-.05.02-.28.07-.53.17-.73.29a1.52 1.534-180 0 0-.5.47 1.094 1.105-180 0 0-.17.63 1.176 1.188-180 0 0 .19.67c.13.2.32.38.56.56.04.03.1.07.15.1.21.14.45.29.73.42.34.17.73.35 1.17.53.59.25 1.12.52 1.59.8s.88.6 1.21.95c.34.36.6.76.78 1.22.18.45.26.98.26 1.59 0 .83-.18 1.52-.47 2.09-.94 1.9-2.7 2.24-3.41 2.4a10.626 10.726 0 0 1-1.02.17c-4.17.5-8.43-1.46-9.65-1.77v7.45h5.8l-.01 4.7a4.38 4.422-180 0 0-3.42 3.85 4.394 4.435-180 0 0 4.37 4.91 4.384 4.425-180 0 0 4.36-3.95 4.395 4.437-180 0 0-3.43-4.81l.01-4.71h25.59l4.27 4.32a7.695 7.767-180 0 0-1.36 6.91 7.625 7.697-180 0 0 7.37 5.61c1.73 0 3.43-.6 4.79-1.7a7.662 7.735-180 0 0 1.28-10.73c-.04-.04-.06-.09-.1-.13m-8.98-17.56a2.514 2.538 0 1 1 4.99.56 2.514 2.538 0 0 1-4.99-.56M9.23 95.65a2.514 2.538 0 1 1-4.99-.55 2.514 2.538 0 0 1 4.99.55m19.76-15.2h-3.35v-6.09h-6.13v6.08h-3.34V65.5h3.34v5.96h6.13V65.5h3.35zM47.16 100a5.783 5.837 0 0 1-8.13-.9 5.776 5.83 0 0 1-.15-7.09c.29-.41.64-.79 1.05-1.12.09-.07.19-.14.29-.21a5.769 5.823 0 0 1 3.32-1.07A5.781 5.836 0 0 1 47.16 100" style="fill:#2f2f2f;stroke:none;stroke-width:15.30000019;stroke-linecap:butt"/><g transform="translate(38.39 -1.891)"><title>Sheet.14833</title><path d="M9.67 93.69a5.773 5.827-180 0 0-7.84-1.12c-.1.07-.2.14-.29.22q-.615.495-1.05 1.11a5.776 5.83-180 0 0 4.67 9.27 5.781 5.836-180 0 0 4.51-9.48" style="fill:#fff;stroke:none;stroke-width:15.30000019;stroke-linecap:butt"/></g></g></g></svg>
